X: 4342
T: 'TIS TOMORROW (Fra Diavolo.)
%R: air, march, polka
B: James Kerr "Merry Melodies" v.4 p.36 #342
Z: 2016 John Chambers <jc:trillian.mit.edu>
M: 2/4
L: 1/8
K: A
[|\
E3c | BAz2 |\
E3c | BA zc |\
eBBB | dFFF |\
cBAB | A2zc/d/ |\
B3c/d/ | e3c/d/ |\
B3A/B/ | G2zc/d/ |\
B3c/d/ | e3c/d/ |
B3A/B/ | G2zE |\
FFFF | FFFF |\
FFFF | g4- |\
g/f/e/d/ c/d/F/G/ | Ac2B- |\
BA2G | Ac2B- |\
BA2G | Ac2B- |\
BA2G | A2z |]

%%sep 1 1 500
%%sep 1 1 500

